packages/ui-icons/svg/Line/subaccounts.svg

<svg viewBox="0 0 1920 1920" version="1.1" xmlns="http://www.w3.org/2000/svg">
    <path d="M1242.24,0 L1242.24,564.705882 L1016.47059,564.705882 L1016.47059,865.807059 L1694.11765,865.807059 L1694.11765,1355.29412 L1920,1355.29412 L1920,1920 L1355.18118,1920 L1355.18118,1355.29412 L1581.17647,1355.29412 L1581.17647,978.861176 L1016.47059,978.861176 L1016.47059,1355.29412 L1242.24,1355.29412 L1242.24,1920 L677.647059,1920 L677.647059,1355.29412 L903.529412,1355.29412 L903.529412,978.861176 L338.710588,978.861176 L338.710588,1355.29412 L564.705882,1355.29412 L564.705882,1920 L0,1920 L0,1355.29412 L225.769412,1355.29412 L225.769412,865.807059 L903.529412,865.807059 L903.529412,564.705882 L677.647059,564.705882 L677.647059,0 L1242.24,0 Z M1807.05882,1468.34824 L1468.12235,1468.34824 L1468.12235,1807.17176 L1807.05882,1807.17176 L1807.05882,1468.34824 Z M1129.41176,1468.34824 L790.588235,1468.34824 L790.588235,1807.17176 L1129.41176,1807.17176 L1129.41176,1468.34824 Z M451.764706,1468.34824 L112.941176,1468.34824 L112.941176,1807.17176 L451.764706,1807.17176 L451.764706,1468.34824 Z M1129.41176,112.941176 L790.588235,112.941176 L790.588235,451.877647 L1129.41176,451.877647 L1129.41176,112.941176 Z" stroke="none" stroke-width="1" fill-rule="evenodd"/>
</svg>

<svg viewBox="0 0 1920 1920" xmlns="http://www.w3.org/2000/svg">
    <path d="M1242.24 0v564.706h-225.77v301.101h677.648v489.487H1920V1920h-564.819v-564.706h225.995V978.861h-564.705v376.433h225.769V1920H677.647v-564.706H903.53V978.861H338.711v376.433h225.995V1920H0v-564.706h225.77V865.807h677.76V564.706H677.646V0h564.593Zm564.819 1468.348h-338.937v338.824h338.937v-338.824Zm-677.647 0H790.588v338.824h338.824v-338.824Zm-677.647 0H112.94v338.824h338.824v-338.824Zm677.647-1355.407H790.588v338.937h338.824V112.94Z" fill-rule="evenodd"/>
</svg>
